Numix-Light-GalliumOS/22/status/megasync-status-paused.svg

<?xml version="1.0" encoding="UTF-8" standalone="no"?>
<svg
   xmlns:dc="http://purl.org/dc/elements/1.1/"
   xmlns:cc="http://creativecommons.org/ns#"
   xmlns:rdf="http://www.w3.org/1999/02/22-rdf-syntax-ns#"
   xmlns:svg="http://www.w3.org/2000/svg"
   xmlns="http://www.w3.org/2000/svg"
   xmlns:sodipodi="http://sodipodi.sourceforge.net/DTD/sodipodi-0.dtd"
   xmlns:inkscape="http://www.inkscape.org/namespaces/inkscape"
   width="22"
   viewBox="0 0 6.208889 6.208889"
   height="22"
   id="svg2"
   version="1.1"
   inkscape:version="0.91 r"
   sodipodi:docname="megasync-status-paused.svg">
  <metadata
     id="metadata399">
    <rdf:RDF>
      <cc:Work
         rdf:about="">
        <dc:format>image/svg+xml</dc:format>
        <dc:type
           rdf:resource="http://purl.org/dc/dcmitype/StillImage" />
        <dc:title />
      </cc:Work>
    </rdf:RDF>
  </metadata>
  <sodipodi:namedview
     pagecolor="#ffffff"
     bordercolor="#666666"
     borderopacity="1"
     objecttolerance="10"
     gridtolerance="10"
     guidetolerance="10"
     inkscape:pageopacity="0"
     inkscape:pageshadow="2"
     inkscape:window-width="1920"
     inkscape:window-height="1056"
     id="namedview397"
     showgrid="true"
     inkscape:zoom="39.405132"
     inkscape:cx="11.378122"
     inkscape:cy="12.836665"
     inkscape:window-x="0"
     inkscape:window-y="24"
     inkscape:window-maximized="1"
     inkscape:current-layer="svg2"
     inkscape:object-paths="true"
     inkscape:snap-intersection-paths="true"
     inkscape:object-nodes="true"
     inkscape:snap-smooth-nodes="true"
     inkscape:snap-midpoints="true"
     inkscape:snap-object-midpoints="true"
     inkscape:snap-center="true">
    <inkscape:grid
       type="xygrid"
       id="grid3000" />
  </sodipodi:namedview>
  <defs
     id="defs4" />
  <path
     style="opacity:0.4;fill:#353535;fill-opacity:1;fill-rule:nonzero;stroke:none;stroke-width:0.21166666;stroke-linecap:butt;stroke-linejoin:miter;stroke-miterlimit:4;stroke-dasharray:none;stroke-dashoffset:0;stroke-opacity:1"
     d="M 11 3 C 6.581722 2.9999996 3 6.5817224 3 11 C 3 15.418278 6.581722 19 11 19 C 15.418278 19 19 15.418278 19 11 C 19 6.5817224 15.418278 2.9999996 11 3 z M 7 6 L 15 6 L 15 16 L 7 16 L 7 6 z "
     transform="scale(0.28222222,0.28222222)"
     id="path4138" />
  <path
     style="opacity:1;fill:#353535;fill-opacity:1;fill-rule:nonzero;stroke:none;stroke-width:0.75;stroke-linecap:butt;stroke-linejoin:miter;stroke-miterlimit:4;stroke-dasharray:none;stroke-dashoffset:0;stroke-opacity:1"
     d="m 2.2577777,1.9755555 0.5644444,0 0,2.2577777 -0.5644444,0 z"
     id="rect4155" />
  <path
     style="opacity:1;fill:#353535;fill-opacity:1;fill-rule:nonzero;stroke:none;stroke-width:0.75;stroke-linecap:butt;stroke-linejoin:miter;stroke-miterlimit:4;stroke-dasharray:none;stroke-dashoffset:0;stroke-opacity:1"
     d="m 3.3866668,1.9755555 0.5644444,0 0,2.2577777 -0.5644444,0 z"
     id="rect4155-4" />
</svg>

<svg xmlns="http://www.w3.org/2000/svg" width="22" viewBox="0 0 6.208889 6.208889" height="22">
 <path d="m 11 3 c -4.418 0 -8 3.582 -8 8 c 0 4.418 3.582 8 8 8 c 4.418 0 8 -3.582 8 -8 c 0 -4.418 -3.582 -8 -8 -8 z m -4 3 l 8 0 l 0 10 l -8 0 l 0 -10 z" transform="scale(0.28222222,0.28222222)" style="fill:#353535;opacity:0.4;fill-opacity:1;stroke:none;fill-rule:nonzero"/>
 <path d="m 2.258 1.976 0.564 0 0 2.258 -0.564 0 z" style="fill:#353535;opacity:1;fill-opacity:1;stroke:none;fill-rule:nonzero"/>
 <path d="m 3.387 1.976 0.564 0 0 2.258 -0.564 0 z" style="fill:#353535;opacity:1;fill-opacity:1;stroke:none;fill-rule:nonzero"/>
</svg>
